projects/vfh1/img/icons/man.svg

<svg width="21" height="21" viewBox="0 0 21 21" fill="none" xmlns="http://www.w3.org/2000/svg">
<path d="M10.5003 10.5001C9.07949 10.5001 7.86317 9.99418 6.85137 8.98237C5.83956 7.97057 5.33366 6.75425 5.33366 5.33341C5.33366 3.91258 5.83956 2.69626 6.85137 1.68446C7.86317 0.672651 9.07949 0.166748 10.5003 0.166748C11.9212 0.166748 13.1375 0.672651 14.1493 1.68446C15.1611 2.69626 15.667 3.91258 15.667 5.33341C15.667 6.75425 15.1611 7.97057 14.1493 8.98237C13.1375 9.99418 11.9212 10.5001 10.5003 10.5001ZM18.2503 20.8334H2.75033C2.03991 20.8334 1.43196 20.5807 0.926492 20.0752C0.420159 19.5689 0.166992 18.9605 0.166992 18.2501V17.2167C0.166992 16.4848 0.355576 15.8118 0.732742 15.1979C1.10905 14.5848 1.60935 14.1167 2.23366 13.7938C3.56838 13.1265 4.92463 12.6257 6.30241 12.2916C7.68019 11.9584 9.07949 11.7917 10.5003 11.7917C11.9212 11.7917 13.3205 11.9584 14.6982 12.2916C16.076 12.6257 17.4323 13.1265 18.767 13.7938C19.3913 14.1167 19.8916 14.5848 20.2679 15.1979C20.6451 15.8118 20.8337 16.4848 20.8337 17.2167V18.2501C20.8337 18.9605 20.5809 19.5689 20.0755 20.0752C19.5691 20.5807 18.9607 20.8334 18.2503 20.8334ZM2.75033 18.2501H18.2503V17.2167C18.2503 16.9799 18.1913 16.7647 18.0734 16.5709C17.9545 16.3772 17.7982 16.2265 17.6045 16.1188C16.442 15.5376 15.2687 15.1014 14.0847 14.8104C12.9007 14.5202 11.7059 14.3751 10.5003 14.3751C9.29477 14.3751 8.09998 14.5202 6.91595 14.8104C5.73192 15.1014 4.55866 15.5376 3.39616 16.1188C3.20241 16.2265 3.04655 16.3772 2.92858 16.5709C2.80974 16.7647 2.75033 16.9799 2.75033 17.2167V18.2501ZM10.5003 7.91675C11.2107 7.91675 11.8191 7.66358 12.3254 7.15725C12.8309 6.65178 13.0837 6.04383 13.0837 5.33341C13.0837 4.623 12.8309 4.01505 12.3254 3.50958C11.8191 3.00325 11.2107 2.75008 10.5003 2.75008C9.78991 2.75008 9.18196 3.00325 8.67649 3.50958C8.17016 4.01505 7.91699 4.623 7.91699 5.33341C7.91699 6.04383 8.17016 6.65178 8.67649 7.15725C9.18196 7.66358 9.78991 7.91675 10.5003 7.91675Z" fill="#42474D"/>
</svg>

<svg width="21" height="21" fill="none" xmlns="http://www.w3.org/2000/svg"><path d="M10.5 10.5c-1.42 0-2.637-.506-3.649-1.518C5.84 7.971 5.334 6.754 5.334 5.333c0-1.42.506-2.637 1.517-3.649C7.863.673 9.08.167 10.501.167c1.42 0 2.636.506 3.648 1.517 1.012 1.012 1.518 2.229 1.518 3.65 0 1.42-.506 2.637-1.518 3.648C13.138 9.994 11.921 10.5 10.5 10.5zm7.75 10.333H2.75c-.71 0-1.318-.252-1.824-.758a2.489 2.489 0 01-.759-1.825v-1.033c0-.732.189-1.405.566-2.02a3.764 3.764 0 011.5-1.403 19.205 19.205 0 014.07-1.502 17.74 17.74 0 014.197-.5c1.421 0 2.82.166 4.198.5 1.378.334 2.734.835 4.069 1.502a3.764 3.764 0 011.5 1.404c.378.614.567 1.287.567 2.019v1.033c0 .71-.253 1.319-.758 1.825a2.491 2.491 0 01-1.826.758zM2.75 18.25h15.5v-1.033c0-.237-.059-.452-.177-.646a1.264 1.264 0 00-.468-.452 16.865 16.865 0 00-3.52-1.309 15.004 15.004 0 00-7.17 0 16.864 16.864 0 00-3.519 1.309 1.253 1.253 0 00-.646 1.098v1.033zM10.5 7.917c.71 0 1.32-.253 1.825-.76a2.486 2.486 0 00.759-1.824c0-.71-.253-1.318-.759-1.823a2.489 2.489 0 00-1.825-.76c-.71 0-1.318.253-1.824.76a2.484 2.484 0 00-.759 1.823c0 .71.253 1.319.76 1.824a2.48 2.48 0 001.823.76z" fill="#42474D"/></svg>
